X:33
T:Schottis fr{\aa}n V\"asterbotten
R:schottis
A:V\"asterbotten
Z:id:hn-schottis-33
M:C|
K:Dm
^g|:a2eg fede|f2A2 f2e^c|d^cde fefg|1 a=bag a2a^g:|2 a=bag a3A||
|:_B2BA BdcB|B2AG A2GF|EGce gecG|FAcf a2fA|
_B2BA BdcB|B2AG A2GF|EGce gece|1 f2a2 f3A:|2 f2a2 f3||
<end>
<start>
